X: 13230
T: Fisherman In The Wardrobe, The
R: mazurka
M: 3/4
K: Adorian
A2 AG Ae|gf de cB|A2 AG Ae|gf de c2:|
e2 cB ce|d2 BA Be|d2 BA Be|dc Bc Ac:|

